X:462
T:La Sardaneta
Z:Jack Campin, http://www.campin.me.uk/
F:Jack Campin's Nine-Note Tunebook
% last edit 03-02-2013
S:CD WKPD-95 no 38, Ball de Bastons Catalunya, track 50
S:Bastoners d'Artes
N:for the violin
M:2/4
L:1/8
K:DMin % original key
P:intro
Q:1/4=128
       DE    FG   |AG  AB|BB Bc|A F2 A|AG FE|F D2 A|AG EF|D2 z||
P:dance
Q:1/4=146
|:d/d/|dd/d/ dd/d/|d c2 B|BB Bc|A F2 A|AG FE|F D2 A|AG EF|D2 z:|
|:z   |DE    FG   |AG  AB|BB Bc|A F2 A|AG FE|F D2 A|AG EF|D2 z:|

